logos/dotnet.svg

<?xml version="1.0" encoding="UTF-8"?>
<svg width="256px" height="256px" viewBox="0 0 256 256" version="1.1" xmlns="http://www.w3.org/2000/svg" preserveAspectRatio="xMidYMid">
    <title>.NET</title>
    <g>
        <rect fill="#512BD4" x="0" y="0" width="256" height="256"></rect>
        <path d="M45.6273965,163.555368 C43.8173193,163.555368 42.2787368,162.952421 41.0116491,161.745965 C39.7445614,160.508632 39.1110175,159.039439 39.1110175,157.338386 C39.1110175,155.605895 39.7445614,154.121544 41.0116491,152.884211 C42.2787368,151.646877 43.8173193,151.028211 45.6273965,151.028211 C47.4676772,151.028211 49.0213614,151.646877 50.2884491,152.884211 C51.5856842,154.121544 52.2343298,155.605895 52.2343298,157.338386 C52.2343298,159.039439 51.5856842,160.508632 50.2884491,161.745965 C49.0213614,162.952421 47.4676772,163.555368 45.6273965,163.555368 Z M117.988491,162.534737 L106.222596,162.534737 L75.2247018,113.631439 C74.4404211,112.394105 73.7914386,111.110175 73.2788772,109.780211 L73.0071579,109.780211 L73.0538292,110.08649 L73.0538292,110.08649 L73.0972819,110.436065 L73.0972819,110.436065 L73.1375158,110.828935 L73.1375158,110.828935 L73.174531,111.2651 L73.174531,111.2651 L73.2240187,112.000528 L73.2240187,112.000528 L73.2662643,112.83337 L73.2662643,112.83337 L73.3012678,113.763627 L73.3012678,113.763627 L73.3290292,114.791298 L73.3290292,114.791298 L73.3495485,115.916385 L73.3495485,115.916385 L73.3592047,116.720561 L73.3592047,116.720561 L73.3692632,118.920421 L73.3692632,118.920421 L73.3692632,162.534737 L62.9608421,162.534737 L62.9608421,96 L75.4958596,96 L105.453474,143.743439 L106.193575,144.911679 L106.193575,144.911679 L106.669684,145.679814 L106.669684,145.679814 L107.078107,146.355353 L107.078107,146.355353 L107.418845,146.938309 L107.418845,146.938309 L107.6084,147.275518 L107.6084,147.275518 L107.767873,147.571589 L107.767873,147.571589 L107.897263,147.826526 L107.897263,147.826526 L108.078035,147.826526 L108.043917,147.617702 L108.043917,147.617702 L107.979689,147.167509 L107.979689,147.167509 L107.920805,146.673926 L107.920805,146.673926 L107.867266,146.136952 C107.858788,146.04384 107.850533,145.948921 107.842501,145.852193 L107.796983,145.250133 L107.796983,145.250133 L107.756815,144.604681 L107.756815,144.604681 L107.721997,143.915839 L107.721997,143.915839 L107.679806,142.801218 L107.679806,142.801218 L107.649664,141.588968 L107.649664,141.588968 L107.631575,140.279088 L107.631575,140.279088 L107.625544,138.871579 L107.625544,138.871579 L107.625544,96 L117.988491,96 L117.988491,162.534737 Z M168.673123,162.534737 L132.244772,162.534737 L132.244772,96 L167.225263,96 L167.225263,105.372632 L143.015298,105.372632 L143.015298,124.209965 L165.324912,124.209965 L165.324912,133.536 L143.015298,133.536 L143.015298,153.208702 L168.673123,153.208702 L168.673123,162.534737 Z M220.444632,105.372632 L201.800421,105.372632 L201.800421,162.534737 L191.029895,162.534737 L191.029895,105.372632 L172.431158,105.372632 L172.431158,96 L220.444632,96 L220.444632,105.372632 Z" fill="#FFFFFF"></path>
    </g>
</svg>

<svg preserveAspectRatio="xMidYMid" viewBox="0 0 256 256" xmlns="http://www.w3.org/2000/svg">
  <path fill="#512BD4" d="M0 0h256v256H0z"/>
  <path fill="#FFF" d="M45.627 163.555c-1.81 0-3.348-.603-4.615-1.809-1.267-1.237-1.901-2.707-1.901-4.408 0-1.732.634-3.216 1.9-4.454 1.268-1.237 2.806-1.856 4.616-1.856 1.84 0 3.394.619 4.661 1.856 1.298 1.238 1.946 2.722 1.946 4.454 0 1.701-.648 3.17-1.946 4.408-1.267 1.206-2.82 1.81-4.66 1.81Zm72.361-1.02h-11.765L75.225 113.63a21.882 21.882 0 0 1-1.946-3.85h-.272l.047.305.043.35.04.393.038.436.049.736.042.832.035.93.028 1.028.02 1.125.01.805.01 2.2v43.614H62.961V96h12.535l29.957 47.743.74 1.169.477.768.408.675.34.583.19.338.16.296.13.255h.18l-.034-.21-.064-.45-.06-.493-.053-.537a35.943 35.943 0 0 1-.024-.285l-.046-.602-.04-.645-.035-.69-.042-1.114-.03-1.212-.018-1.31-.006-1.407V96h10.362v66.535Zm50.685 0h-36.428V96h34.98v9.373h-24.21v18.837h22.31v9.326h-22.31v19.673h25.658v9.326Zm51.772-57.162H201.8v57.162h-10.77v-57.162h-18.6V96h48.014v9.373Z"/>
</svg>
